X:1
T: Clarance House
N:1st tune is "Clarance House"; 2nd tune is "Whit Monday"
C:Pat Shaw
S: Play J R J R J R
A:
O:
R:
M:6/8
K:G
%W: Jig
% voice 1 (1 lines, 42 notes)
K:G
M:6/8
L:1/16
G2 A2 |B2 d2 B2 A4 A2 G2 B2 G2 A2 G2 E2 D2 E2 G2 B4 d2 A6A2 G2 A2 |B2 d2 B2 A4 A2 G2 B2 G2 A2 G2 E2 D2 E2 G2 B4 A2 G6G2 G2 A2 |
%W:
% voice 1 (1 lines, 40 notes)
B2 d2 B2 A4 A2 G2 B2 G2 A2 G2 E2 D2 E2 G2 B4 d2 A6A2 G2 A2 |B2 d2 B2 A4 A2 G2 B2 G2 A2 G2 E2 D2 E2 G2 B4 A2 G6G2 g2 a2 |
%W:
% voice 1 (1 lines, 44 notes)
b2 a2 g2 a2 g2 e2 d3 e g e d2 B2 A2 G2 A2 B2 e4 B2 d6d2 g2 a2 |b2 a2 g2 a2 g2 e2 d3 e g e d2 B2 G2 A2 B2 A2 G4 E2 G6G2 g2 a2 |
%W:
% voice 1 (1 lines, 44 notes)
b2 a2 g2 a2 g2 e2 d3 e g e d2 B2 A2 G2 B2 e2 d2 B2 G2 E2 c2 B2 A2 G2 A2 |B2 d2 B2 A4 A2 G3 A B G A2 G2 E2 D2 E2 G2 B4 A2 G6G2 |
%W: Reel
% voice 1 (1 lines, 34 notes)
K:D
M:4/4
L:1/16
A4 |a8 d4 e2 f2 |e6 d2 B4 d2 B2 |A4 B2 d2d2 f2 a4 |e12 A4 |a8 d4 e2 f2 |e6 d2 B4 d2 B2 |A4 a4 f2 d2 e4 |d12 A4 |
%W:
% voice 1 (1 lines, 33 notes)
a8 d4 e2 f2 |e6 d2 B4 d2 B2 |A4 B2 d2d2 f2 a4 |e12 A4 |a8 d4 e2 f2 |e6 d2 B4 d2 B2 |A4 a4 f2 d2 e4 |d12 A4 |
%W:
% voice 1 (1 lines, 32 notes)
D6 E2 F4 A4 |B4 d4 d4 c2 B2 |A6 B2 d4 F4 |A12 F2 E2 |D6 E2 F4 A4 |B4 d4 d4 c2 B2 |c6 A2 F4 A4 |B12 B2 c2 |
%W:
% voice 1 (1 lines, 36 notes)
d6 e2 d2 e2 d2 B2 |A2 B2 A2 F2 E4 D2 E2 |F4 d2 B2 A4 D4 |E8 A,4 B,4 |D6 E2 F4 A4 |B4 d4 d4 c2 B2 |A4 a4 f2 d2 e4 |d12 ||
